!!!COM:	Du Fay, Guillaume
!!!CDT:	~1397/08/05/-1474/11/27
!!!OPR:	Missa Se la face ay pale
!!!ONM:	2
!!!OTL:	Gloria
!!!AGN:	Mass; Gloria
!!!SCT:	Duf1005b
!!!SCA:	Duf1005b
!!!voices:	4
!!!voices-OPR:	4
!!midi-transpose: -2
**kern	**text	**kern	**text	**kern	**text	**kern	**text
*staff4	*staff4	*staff3	*staff3	*staff2	*staff2	*staff1	*staff1
*Ivox	*	*Ivox	*	*Ivox	*	*Ivox	*
*I"Bassus	*	*I"Tenor	*	*I"Contratenor	*	*I"Cantus	*
*I'B	*	*I'T	*	*I'Ct	*	*I'Cn	*
*>[A,B,C]	*>[A,B,C]	*>[A,B,C]	*>[A,B,C]	*>[A,B,C]	*>[A,B,C]	*>[A,B,C]	*>[A,B,C]
*>A	*>A	*>A	*>A	*>A	*>A	*>A	*>A
*clefF4	*	*clefGv2	*	*clefGv2	*	*clefG2	*
*k[]	*	*k[]	*	*k[]	*	*k[]	*
*M3/1	*	*M3/1	*	*M3/1	*	*M3/1	*
*met(O)	*	*met(O)	*	*met(O)	*	*met(O)	*
*MM384	*MM384	*MM384	*MM384	*MM384	*MM384	*MM384	*MM384
!!section: Et in terra pax
!!!OMD: Et in terra pax
=1-	=1-	=1-	=1-	=1-	=1-	=1-	=1-
0.r	.	0.r	.	0.c	Et	1.cc	Et
.	.	.	.	.	.	2b\	.
.	.	.	.	.	.	1a	in
=2	=2	=2	=2	=2	=2	=2	=2
0.r	.	0.r	.	1.c	in	1g	ter-
.	.	.	.	.	.	1.cc	-ra
.	.	.	.	2B\	.	.	.
.	.	.	.	1A	.	.	.
.	.	.	.	.	.	2b\	.
=3	=3	=3	=3	=3	=3	=3	=3
0.r	.	0.r	.	1G	ter-	1b	.
.	.	.	.	0c	-ra	2a/	pax
.	.	.	.	.	.	2g/	.
.	.	.	.	.	.	1e	.
=4	=4	=4	=4	=4	=4	=4	=4
0.r	.	0.r	.	0B	pax	1d	.
.	.	.	.	.	.	2r	.
.	.	.	.	.	.	1g	ho-
.	.	.	.	2B\	ho-	.	.
.	.	.	.	2A/	.	2f/	.
=5	=5	=5	=5	=5	=5	=5	=5
0.r	.	0.r	.	1B	-mi-	1g	-mi-
.	.	.	.	1.c	.	1.a	.
.	.	.	.	2B\	-ni-	2g/	-ni-
=6	=6	=6	=6	=6	=6	=6	=6
0.r	.	0.r	.	0.G	-bus	0b	-bus
.	.	.	.	.	.	1r	.
=7	=7	=7	=7	=7	=7	=7	=7
0.r	.	0.r	.	1r	.	1.b	bo-
.	.	.	.	0g	bo-	.	.
.	.	.	.	.	.	2cc\	.
.	.	.	.	.	.	1dd	.
=8	=8	=8	=8	=8	=8	=8	=8
0.r	.	0.r	.	0g	-ne	1ee	-ne
.	.	.	.	.	.	2dd\	vo-
.	.	.	.	.	.	2b\	.
.	.	.	.	1a	.	1cc	-lun-
=9	=9	=9	=9	=9	=9	=9	=9
0.r	.	0.r	.	1g	vo-	2b\	-ta-
.	.	.	.	.	.	1a	.
.	.	.	.	2f\	.	.	.
.	.	.	.	1g	-lun-	2g/	.
.	.	.	.	.	.	2b\	.
.	.	.	.	2e\	.	2cc\	.
=10	=10	=10	=10	=10	=10	=10	=10
0.r	.	0.r	.	2f\	-ta-	1dd	.
.	.	.	.	1g	.	.	.
.	.	.	.	.	.	2b\	.
.	.	.	.	2c\	.	2cc\	.
.	.	.	.	2.d\	.	2b\	.
.	.	.	.	.	.	[2a/	.
.	.	.	.	4c\	.	.	.
=11	=11	=11	=11	=11	=11	=11	=11
0.r	.	0.r	.	2A/	.	2a/]	.
.	.	.	.	2B\	.	2.g/	.
.	.	.	.	1c	.	.	.
.	.	.	.	.	.	4f/	.
.	.	.	.	.	.	2e/	.
.	.	.	.	2d\	.	1d	.
.	.	.	.	[2B\	.	.	.
=12	=12	=12	=12	=12	=12	=12	=12
0.r	.	0.r	.	2B\]	.	2g/	.
.	.	.	.	2G/	.	2b\	.
.	.	.	.	2c\	.	2a/	.
.	.	.	.	2B\	.	1g	.
.	.	.	.	1A	.	.	.
.	.	.	.	.	.	2f#i/	.
=13	=13	=13	=13	=13	=13	=13	=13
0.r	.	0.r	.	0G	-tis.	0.g	-tis.
.	.	.	.	1r	.	.	.
=14	=14	=14	=14	=14	=14	=14	=14
0.r	.	0.r	.	1c	Lau-	1r	.
.	.	.	.	2d\	-da-	1r	.
.	.	.	.	1e	.	.	.
.	.	.	.	.	.	1cc	Lau-
.	.	.	.	[2f\	.	.	.
=15	=15	=15	=15	=15	=15	=15	=15
0.r	.	0.r	.	2f\]	.	2dd\	-da-
.	.	.	.	2g\	.	1ee	.
.	.	.	.	2c\	.	.	.
.	.	.	.	2e\	.	1cc	.
.	.	.	.	1d	-mus	.	.
.	.	.	.	.	.	2b\	-mus
=16	=16	=16	=16	=16	=16	=16	=16
0.r	.	0.r	.	2c\	te.	1cc	te.
.	.	.	.	2A/	.	.	.
.	.	.	.	0B	.	1.dd	Be-
.	.	.	.	.	.	2cc\	.
=17	=17	=17	=17	=17	=17	=17	=17
0.r	.	0.r	.	1c	Be-	2a/	-ne-
.	.	.	.	.	.	2g/	.
.	.	.	.	1G	-ne-	1b	-di-
.	.	.	.	1c	-di-	1g	.
=18	=18	=18	=18	=18	=18	=18	=18
0.r	.	0.r	.	1e	-ci-	1.cc	-ci-
.	.	.	.	0d	-mus	.	.
.	.	.	.	.	.	2b\	.
.	.	.	.	.	.	2b\	-mus
.	.	.	.	.	.	2a/	.
=19	=19	=19	=19	=19	=19	=19	=19
1r	.	[0.c	Ad-	0c	te.	[0.cc	te.
1r	.	.	.	.	.	.	.
1c	Ad-	.	.	1e	Ad-	.	.
=20	=20	=20	=20	=20	=20	=20	=20
1A	-o-	0.c]	.	1e	-o-	1cc]	.
0F	.	.	.	1.f	-ra-	0a	Ad-
.	.	.	.	2e\	.	.	.
=21	=21	=21	=21	=21	=21	=21	=21
0C	-ra-	0.c	-o-	1e	.	1g	-o-
.	.	.	.	2g\	.	2e/	-ra-
.	.	.	.	2f\	.	2f/	.
1C	-mus	.	.	1e	-mus	1g	-mus,
=22	=22	=22	=22	=22	=22	=22	=22
0.G	te,	[0.B	-ra-	0.d	te.	1r	.
.	.	.	.	.	.	1r	.
.	.	.	.	.	.	1g	ad-
=23	=23	=23	=23	=23	=23	=23	=23
1G	ad-	0.B]	.	1r	.	2d/	-o-
.	.	.	.	.	.	1g	-ra-
2E\	-o-	.	.	1r	.	.	.
2F\	-ra-	.	.	.	.	2f/	.
1G	-mus	.	.	1B	Glo-	2d/	.
.	.	.	.	.	.	2e/	.
=24	=24	=24	=24	=24	=24	=24	=24
0.F	te.	0.A	-mus	0c	-ri-	0f	.
.	.	.	.	1c	-fi-	1cc	-mus
=25	=25	=25	=25	=25	=25	=25	=25
1r	.	1.c	te,	1.A	-ca-	1cc	te,
1r	.	.	.	.	.	1a	.
.	.	1.d	.	2G/	.	.	.
1F	Glo-	.	.	1A	-mus	1f	.
=26	=26	=26	=26	=26	=26	=26	=26
0.C	-ri-	0.e	Glo-	1G	te,	0.g	.
.	.	.	.	2c\	glo-	.	.
.	.	.	.	1c	-ri-	.	.
.	.	.	.	2B\	-fi-	.	.
=27	=27	=27	=27	=27	=27	=27	=27
0.D	.	0.f	-ri-	2A/	-ca-	0.r	.
.	.	.	.	1d	.	.	.
.	.	.	.	2c\	.	.	.
.	.	.	.	2A/	-mus	.	.
.	.	.	.	2B\	.	.	.
=28	=28	=28	=28	=28	=28	=28	=28
0.C	-fi-	0.e	-fi-	0.c	te.	1g	Glo-
.	.	.	.	.	.	1g	-ri-
.	.	.	.	.	.	1a	-fi-
=29	=29	=29	=29	=29	=29	=29	=29
0G	-ca-	[0.d	-ca-	0.r	.	0b	-ca-
[1D	.	.	.	.	.	[1a	.
=30	=30	=30	=30	=30	=30	=30	=30
1D]	.	0.d]	.	1r	.	2a/]	.
.	.	.	.	.	.	2.dd\	.
0G	-mus	.	.	1r	.	.	.
.	.	.	.	.	.	4cc\	.
.	.	.	.	.	.	2cc\	.
.	.	.	.	1d	Gra-	2.b\	-mus
.	.	.	.	.	.	4a/	.
=31	=31	=31	=31	=31	=31	=31	=31
[0.C	te.	0.c	-mus	1.e	-ti-	[0.cc	te.
.	.	.	.	2f\	.	.	.
.	.	.	.	1g	-as	.	.
=32	=32	=32	=32	=32	=32	=32	=32
0C]	.	1.G	te.	1g	a-	0.cc]	.
.	.	.	.	1e	-gi-	.	.
.	.	[1.A	Gra-	.	.	.	.
[1F	Gra-	.	.	1c	-mus	.	.
=33	=33	=33	=33	=33	=33	=33	=33
2F\]	.	1.A]	.	2.c\	ti-	0.r	.
1F	-ti-	.	.	.	.	.	.
.	.	.	.	4B\	.	.	.
.	.	.	.	2A/	.	.	.
2E\	.	1.B	-ti-	1G	.	.	.
1D	.	.	.	.	.	.	.
.	.	.	.	2F/	.	.	.
=34	=34	=34	=34	=34	=34	=34	=34
0.C	-as	[0.c	-as	1G	-bi	0e	Gra-
.	.	.	.	1r	.	.	.
.	.	.	.	1g	pro-	1e	-ti-
=35	=35	=35	=35	=35	=35	=35	=35
0.r	.	0.c]	.	0g	-pter	1.e	-as
.	.	.	.	.	.	2f/	.
.	.	.	.	1e	ma-	1g	.
=36	=36	=36	=36	=36	=36	=36	=36
1F	a-	0.r	.	2c\	-gnam	1a	a-
.	.	.	.	2f\	.	.	.
2G\	.	.	.	2e\	.	2g/	.
2B-i\	.	.	.	1d	.	1g	-gi-
1A	-gi-	.	.	.	.	.	.
.	.	.	.	2c\	.	2f#i/	.
=37	=37	=37	=37	=37	=37	=37	=37
0.G	-mus	[0.g	pro-	1d	glo-	1g	-mus
.	.	.	.	1d	-ri-	2b\	ti-
.	.	.	.	.	.	2cc\	.
.	.	.	.	1d	-am	1dd	.
=38	=38	=38	=38	=38	=38	=38	=38
0c	ti-	0.g]	.	0.e	tu-	1cc	.
.	.	.	.	.	.	2ee\	.
.	.	.	.	.	.	2.ee\	.
1c	.	.	.	.	.	.	.
.	.	.	.	.	.	4dd\	.
.	.	.	.	.	.	2cc\	.
=39	=39	=39	=39	=39	=39	=39	=39
0.G	-bi	0.g	-pter	0.d	-am.	1b	-bi
.	.	.	.	.	.	1r	.
.	.	.	.	.	.	1b	pro-
=40	=40	=40	=40	=40	=40	=40	=40
0.r	.	[0.c	ma-	0.r	.	1.cc	.
.	.	.	.	.	.	2b\	.
.	.	.	.	.	.	2a/	.
.	.	.	.	.	.	2g/	.
=41	=41	=41	=41	=41	=41	=41	=41
0.r	.	0.c]	.	0.r	.	1a	.
.	.	.	.	.	.	1g	.
.	.	.	.	.	.	1e	-pter
=42	=42	=42	=42	=42	=42	=42	=42
0.r	.	0.B	-gnam	0.r	.	0d	ma-
.	.	.	.	.	.	1d	-gnam
=43	=43	=43	=43	=43	=43	=43	=43
0.r	.	1.c	glo-	0.r	.	2r	.
.	.	.	.	.	.	1e	glo-
.	.	1.d	-ri-	.	.	2d/	.
.	.	.	.	.	.	2.f/	-ri-
.	.	.	.	.	.	4e/	.
=44	=44	=44	=44	=44	=44	=44	=44
0.r	.	1.e	-am	0.r	.	1c	-am
.	.	.	.	.	.	2g/	tu-
.	.	1.f	tu-	.	.	2.a/	.
.	.	.	.	.	.	4b\	.
.	.	.	.	.	.	2cc\	.
=45	=45	=45	=45	=45	=45	=45	=45
0.r	.	0.d	.	0.r	.	2b\	.
.	.	.	.	.	.	2.dd\	.
.	.	.	.	.	.	4cc\	.
.	.	.	.	.	.	2a/	.
.	.	.	.	.	.	2.b\	.
.	.	.	.	.	.	4a/	.
=46	=46	=46	=46	=46	=46	=46	=46
1r	.	[0.c	-am.	0g	Do-	0cc	-am.
1r	.	.	.	.	.	.	.
1C	do-	.	.	1g	.	1r	.
=47	=47	=47	=47	=47	=47	=47	=47
0C	.	0.c]	.	1.e	.	1g	Do-
.	.	.	.	.	.	2a/	.
.	.	.	.	2g\	.	1cc	.
2.F\	.	.	.	2f\	.	.	.
.	.	.	.	4e\	.	2b\	.
4G\	.	.	.	4d\	.	.	.
=48	=48	=48	=48	=48	=48	=48	=48
2A\	.	0.r	.	2c\	.	2a/	.
2B\	.	.	.	2d\	.	1g	.
2c\	.	.	.	2e\	.	.	.
2F\	.	.	.	2c\	.	2f/	.
1G	-mi-	.	.	4B\	.	2d/	-mi-
.	.	.	.	2B\	-mi-	.	.
.	.	.	.	.	.	2e/	.
.	.	.	.	4A/	.	.	.
=49	=49	=49	=49	=49	=49	=49	=49
0.F	-ne	0.a	Do-	1c	-ne	1.f	-ne
.	.	.	.	1r	.	.	.
.	.	.	.	.	.	2e/	.
.	.	.	.	1f	de-	1c	.
=50	=50	=50	=50	=50	=50	=50	=50
0.F	de-	1.a	-mi-	2d\	.	1f	de-
.	.	.	.	2c\	.	.	.
.	.	.	.	2.f\	.	2d/	.
.	.	[1.a	-ne	.	.	2c/	.
.	.	.	.	4e\	.	.	.
.	.	.	.	1c	.	2.f/	.
.	.	.	.	.	.	4e/	.
=51	=51	=51	=51	=51	=51	=51	=51
1F	-us,	1.a]	.	0.A	-us,	1c	-us,
2D\	.	.	.	.	.	2f/	de-
2C/	.	1.a	de-	.	.	2e/	.
1F	.	.	.	.	.	2.d/	.
.	.	.	.	.	.	4c/	.
=52	=52	=52	=52	=52	=52	=52	=52
0.C	rex	[0.g	-us,	0.c	rex	0e	.
.	.	.	.	.	.	1e	-us,
=53	=53	=53	=53	=53	=53	=53	=53
0.r	.	0.g]	.	0.G	ce-	0d	rex
.	.	.	.	.	.	1dd	ce-
=54	=54	=54	=54	=54	=54	=54	=54
0c	ce-	1.r	.	2e\	-le-	2cc\	-le-
.	.	.	.	2f\	.	2dd\	.
.	.	.	.	1g	.	1.ee	.
.	.	1.c	rex	.	.	.	.
1A	.	.	.	1a	.	.	.
.	.	.	.	.	.	2dd\	.
=55	=55	=55	=55	=55	=55	=55	=55
1B-	-le-	1.d	ce-	1f	.	2dd\	.
.	.	.	.	.	.	2cc\	.
0G	.	.	.	0g	.	1.b	.
.	.	1.e	-le-	.	.	.	.
.	.	.	.	.	.	2a/	.
=56	=56	=56	=56	=56	=56	=56	=56
0.F	-stis,	0.f	-stis,	0.c	-stis,	0.a	-stis,
=57	=57	=57	=57	=57	=57	=57	=57
0.G	de-	0.d	de-	0.B	.	1b	de-
.	.	.	.	.	.	2a/	-us
.	.	.	.	.	.	1g	pa-
.	.	.	.	.	.	2f/	.
=58	=58	=58	=58	=58	=58	=58	=58
0.A	.	0.c	-us	0.r	.	0e	-ter
.	.	.	.	.	.	1cc	om-
=59	=59	=59	=59	=59	=59	=59	=59
0.F	-us	0.r	.	0.c	de-	1cc	-ni-
.	.	.	.	.	.	1.a	-po-
.	.	.	.	.	.	2g/	.
=60	=60	=60	=60	=60	=60	=60	=60
0.r	.	0.d	de-	0.G	-us	0.b	-tens.
=61	=61	=61	=61	=61	=61	=61	=61
0C	pa-	0.c	-us	0G	pa-	0.r	.
1c	-ter	.	.	1A	-ter	.	.
=62	=62	=62	=62	=62	=62	=62	=62
1d	om-	0.G	pa-	2B\	om-	0.r	.
.	.	.	.	2c\	.	.	.
0B	.	.	.	1.d	.	.	.
.	.	.	.	2c\	.	.	.
=63	=63	=63	=63	=63	=63	=63	=63
0c	-ni-	1.g	-ter	0e	-ni-	0.r	.
.	.	1.g	om-	.	.	.	.
[1G	-po-	.	.	1d	-po-	.	.
=64	=64	=64	=64	=64	=64	=64	=64
1G]	.	1.g	-ni-	1d	-tens.	0.r	.
0C	-tens.	.	.	1e	.	.	.
.	.	1.g	-po-	.	.	.	.
.	.	.	.	2.c\	Do-	.	.
.	.	.	.	4B\	.	.	.
=65	=65	=65	=65	=65	=65	=65	=65
1r	.	0.c	-tens.	2.A/	.	0.e	Do-
.	.	.	.	4G/	.	.	.
0C	Do-	.	.	1G	-mi-	.	.
.	.	.	.	1A	.	.	.
=66	=66	=66	=66	=66	=66	=66	=66
0BB	-mi-	1.r	.	0B	-ne	1.d	-mi-
.	.	1.d	Do-	.	.	2d/	-ne
1BB	-ne	.	.	1r	.	2f/	.
.	.	.	.	.	.	2g/	.
=67	=67	=67	=67	=67	=67	=67	=67
0.C	fi-	0.c	-mi-	1.G	fi-	1e	.
.	.	.	.	.	.	1g	.
.	.	.	.	1.e	.	.	.
.	.	.	.	.	.	2.cc\	.
.	.	.	.	.	.	4b\	.
=68	=68	=68	=68	=68	=68	=68	=68
0.G	.	0.B-	-ne	[0.d	.	1g	.
.	.	.	.	.	.	2.dd\	fi-
.	.	.	.	.	.	4cc\	.
.	.	.	.	.	.	4b-i\	.
.	.	.	.	.	.	4a/	.
.	.	.	.	.	.	2g/	.
=69	=69	=69	=69	=69	=69	=69	=69
0.D	-li,	0.A	fi-	0.d]	.	2f/	.
.	.	.	.	.	.	2.a/	.
.	.	.	.	.	.	4g/	.
.	.	.	.	.	.	2g/	.
.	.	.	.	.	.	2.f#i/	.
.	.	.	.	.	.	4e/	.
=70	=70	=70	=70	=70	=70	=70	=70
1r	.	0.G	-li	0d	-li,	0.g	-li
1r	.	.	.	.	.	.	.
1G	do-	.	.	1r	.	.	.
=71	=71	=71	=71	=71	=71	=71	=71
1.G	.	0.r	.	1d	do-	0.r	.
.	.	.	.	2e\	.	.	.
2A\	.	.	.	2f\	.	.	.
1B	.	.	.	1g	.	.	.
=72	=72	=72	=72	=72	=72	=72	=72
1c	.	0.r	.	1a	.	0.r	.
2B\	.	.	.	2g\	.	.	.
2G\	.	.	.	1g	-mi-	.	.
1A	-mi-	.	.	.	.	.	.
.	.	.	.	2f#i\	.	.	.
=73	=73	=73	=73	=73	=73	=73	=73
1G	-ne	0.r	.	1g	-ne	0.r	.
1B	fi-	.	.	2r	.	.	.
.	.	.	.	2G/	fi-	.	.
2c\	.	.	.	2A/	.	.	.
[2d\	.	.	.	2B\	.	.	.
=74	=74	=74	=74	=74	=74	=74	=74
2d\]	.	0.r	.	1.G	.	0.r	.
2G\	.	.	.	.	.	.	.
2B\	.	.	.	.	.	.	.
2c\	.	.	.	2E/	.	.	.
1A	.	.	.	1F#i	.	.	.
=75	=75	=75	=75	=75	=75	=75	=75
0.G	-li	0.r	.	1G	-li	0.r	.
.	.	.	.	1r	.	.	.
.	.	.	.	1B	u-	.	.
=76	=76	=76	=76	=76	=76	=76	=76
1r	.	0.r	.	2c\	-ni-	0.r	.
.	.	.	.	1d	-ge-	.	.
1G	u-	.	.	.	.	.	.
.	.	.	.	2B\	.	.	.
1F	.	.	.	1A	-ni-	.	.
=77	=77	=77	=77	=77	=77	=77	=77
1G	-ni-	0.r	.	2G/	-te,	0.r	.
.	.	.	.	2r	.	.	.
0C	-ge-	.	.	1e	u-	.	.
.	.	.	.	2f\	-ni-	.	.
.	.	.	.	[2g\	-ge-	.	.
=78	=78	=78	=78	=78	=78	=78	=78
1C	.	0.r	.	4g\]	.	0.r	.
.	.	.	.	4f\	.	.	.
.	.	.	.	2e\	.	.	.
1BB	.	.	.	1d	.	.	.
1C	.	.	.	2c\	.	.	.
.	.	.	.	[2A/	.	.	.
=79	=79	=79	=79	=79	=79	=79	=79
2D\	.	0.r	.	2A/]	.	0.r	.
1E	.	.	.	2G/	.	.	.
.	.	.	.	2c\	.	.	.
2F\	.	.	.	2d\	.	.	.
[1G	.	.	.	1e	.	.	.
=80	=80	=80	=80	=80	=80	=80	=80
2G\]	.	0.r	.	2d\	.	0.r	.
2A\	.	.	.	2f\	.	.	.
2G\	.	.	.	2e\	.	.	.
2E\	.	.	.	2g\	.	.	.
1F	.	.	.	2f\	.	.	.
.	.	.	.	[2d\	.	.	.
=81	=81	=81	=81	=81	=81	=81	=81
1G	.	0.r	.	2d\]	.	0.r	.
.	.	.	.	2.e\	.	.	.
2C/	.	.	.	.	.	.	.
.	.	.	.	4c\	.	.	.
2E\	.	.	.	1c	.	.	.
1D	-ni-	.	.	.	.	.	.
.	.	.	.	2B\	-ni-	.	.
=82	=82	=82	=82	=82	=82	=82	=82
0.C	-te,	[0.c	u-	1c	-te,	0.r	.
.	.	.	.	0G	.	.	.
=83	=83	=83	=83	=83	=83	=83	=83
0.r	.	0.c]	.	1.g	fi-	1.e	u-
.	.	.	.	2f\	.	2f/	.
.	.	.	.	1e	.	1g	-ni-
=84	=84	=84	=84	=84	=84	=84	=84
0G	u-	0.B	-ni-	0.d	-li	0g	-ge-
1G	-ni-	.	.	.	.	1g	.
=y85	=85	=85	=85	=85	=85	=85	=85
0C	-ge-	[0.c	-ge-	0.r	.	2a/	.
.	.	.	.	.	.	1g	.
.	.	.	.	.	.	1cc	.
[1F	.	.	.	.	.	.	.
.	.	.	.	.	.	2b\	.
=86	=86	=86	=86	=86	=86	=86	=86
2F\]	.	0.c]	.	0.r	.	2.a/	.
2E\	.	.	.	.	.	.	.
.	.	.	.	.	.	4g/	.
2F\	.	.	.	.	.	2a/	.
2G\	.	.	.	.	.	2e/	.
1A	-ni-	.	.	.	.	2.f#i/	-ni-
.	.	.	.	.	.	4e/	.
=87	=87	=87	=87	=87	=87	=87	=87
1.G	-te	0.d	-ni-	0.r	.	0.g	-te
2A\	.	.	.	.	.	.	.
1B	.	.	.	.	.	.	.
=88	=88	=88	=88	=88	=88	=88	=88
0.c	.	0.e	-te	0.g	Ie-	1r	.
.	.	.	.	.	.	1.cc	Ie-
.	.	.	.	.	.	2b\	.
=89	=89	=89	=89	=89	=89	=89	=89
0.r	.	0.c	.	0.e	-su	2a/	.
.	.	.	.	.	.	2g/	.
.	.	.	.	.	.	0g	-su
=90	=90	=90	=90	=90	=90	=90	=90
1r	.	0.r	.	1e	Chri-	1g	Chri-
0A	Ie-	.	.	2f\	.	0cc	-ste,
.	.	.	.	2e\	.	.	.
.	.	.	.	1c	-ste,	.	.
=91	=91	=91	=91	=91	=91	=91	=91
1G	.	1.g	Ie-	1d	Ie-	1b	Ie-
1c	.	.	.	1e	.	1cc	.
.	.	1.g	-su	.	.	.	.
[1G	-su	.	.	1d	-su	1dd	-su
=92	=92	=92	=92	=92	=92	=92	=92
2G\]	.	1.e	Chri-	2.g\	Chri-	1ee	Chri-
1c	Chri-	.	.	.	.	.	.
.	.	.	.	4f\	.	.	.
.	.	.	.	2e\	.	2a/	.
2B\	.	1.f	.	2d\	.	2b\	.
1A	.	.	.	2.c\	.	2.cc\	.
.	.	.	.	4B\	.	4dd\	.
=93	=93	=93	=93	=93	=93	=93	=93
0.G	.	0.g	-ste.	0d	.	0b	.
.	.	.	.	1B	.	1g	.
=94	=94	=94	=94	=94	=94	=94	=94
0.C	-ste.	0.r	.	0.c	-ste.	0.g	-ste.
=95	=95	=95	=95	=95	=95	=95	=95
0F	Do-	0.c	Do-	0A	Do-	0.r	.
1A	-mi-	.	.	1A	-mi-	.	.
=96	=96	=96	=96	=96	=96	=96	=96
1B-	-ne	1.d	-mi-	1G	-ne	1.dd	Do-
0G	de-	.	.	0B	de-	.	.
.	.	1.e	-ne	.	.	2cc\	-mi-
.	.	.	.	.	.	1b	-ne
=97	=97	=97	=97	=97	=97	=97	=97
1F	-us,	1.f	de-	1c	-us,	1a	de-
1A	.	.	.	1r	.	2cc\	.
.	.	1.e	.	.	.	1cc	.
1c	.	.	.	[1A	a-	.	.
.	.	.	.	.	.	2b\	.
=98	=98	=98	=98	=98	=98	=98	=98
2r	.	1.c	-us,	2A/]	.	1.a	.
1F	a-	.	.	1A	.	.	.
2E\	.	1.G	a-	1B	.	2g/	.
2G\	.	.	.	.	.	1g	-us,
[2C/	.	.	.	2c\	.	.	.
=99	=99	=99	=99	=99	=99	=99	=99
2C/]	.	1.A	.	2.c\	.	0.r	.
1F	.	.	.	.	.	.	.
.	.	.	.	4B\	.	.	.
.	.	.	.	2A/	.	.	.
2E\	.	1.B	.	1G	.	.	.
1D	.	.	.	.	.	.	.
.	.	.	.	2F/	.	.	.
=100	=100	=100	=100	=100	=100	=100	=100
[0.C	-gnus	1.c	.	2G/	.	1r	.
.	.	.	.	2A/	.	.	.
.	.	.	.	2G/	.	2g/	a-
.	.	[1.e	.	2c\	.	2a/	.
.	.	.	.	2B\	.	2g/	.
.	.	.	.	[2G/	.	2cc\	.
=101	=101	=101	=101	=101	=101	=101	=101
0.C]	.	1.e]	.	2G/]	.	2b\	.
.	.	.	.	2c\	.	1g	.
.	.	.	.	2d\	.	.	.
.	.	1.c	.	1e	.	2cc\	.
.	.	.	.	.	.	2dd\	.
.	.	.	.	2c\	.	[2ee\	.
=102	=102	=102	=102	=102	=102	=102	=102
0.C	De-	1.g	-gnus	2.c\	.	2ee\]	.
.	.	.	.	.	.	2cc\	.
.	.	.	.	4B\	.	.	.
.	.	.	.	4A/	.	2.cc\	.
.	.	.	.	4G/	.	.	.
.	.	1.e	.	2G/	-gnus	.	.
.	.	.	.	.	.	4b\	.
.	.	.	.	1c	.	4a/	.
.	.	.	.	.	.	4g/	.
.	.	.	.	.	.	2g/	-gnus
=103	=103	=103	=103	=103	=103	=103	=103
[0.C	-i,	1.c	.	2e\	de-	2r	.
.	.	.	.	2c\	.	2g/	de-
.	.	.	.	1g	.	2e/	.
.	.	1.r	.	.	.	2c/	.
.	.	.	.	2.e\	.	1g	.
.	.	.	.	4c\	.	.	.
=104	=104	=104	=104	=104	=104	=104	=104
0.C]	.	1.g	de-	2c\	-i,	2.e/	.
.	.	.	.	2r	.	.	.
.	.	.	.	.	.	4c/	.
.	.	.	.	2G/	de-	1c	.
.	.	1.e	.	4A/	.	.	.
.	.	.	.	2c\	.	.	.
.	.	.	.	.	.	1cc	.
.	.	.	.	4B\	.	.	.
.	.	.	.	2A/	.	.	.
=105	=105	=105	=105	=105	=105	=105	=105
0.r	.	1.g	.	1G	.	1b	-i,
.	.	.	.	2c\	.	1r	.
.	.	1.f	.	2r	.	.	.
.	.	.	.	2.d\	.	1r	.
.	.	.	.	4c\	.	.	.
=106	=106	=106	=106	=106	=106	=106	=106
0.r	.	0.d	.	2B\	.	0.r	.
.	.	.	.	2.f\	.	.	.
.	.	.	.	4e\	.	.	.
.	.	.	.	4d\	.	.	.
.	.	.	.	4c\	.	.	.
.	.	.	.	2.B\	.	.	.
.	.	.	.	4A/	.	.	.
=107	=107	=107	=107	=107	=107	=107	=107
0.C	fi-	0.c	-i,	1c	.	1.cc	fi-
.	.	.	.	0e	.	.	.
.	.	.	.	.	.	2b\	.
.	.	.	.	.	.	1g	.
=108	=108	=108	=108	=108	=108	=108	=108
0F	.	1.r	.	1c	-i	0a	.
.	.	.	.	1r	.	.	.
.	.	1.d	fi-	.	.	.	.
1G	.	.	.	1g	fi-	1b	.
=109	=109	=109	=109	=109	=109	=109	=109
1A	.	1.c	.	1e	.	0cc	.
0F	.	.	.	2.f\	-li-	.	.
.	.	[1.A	.	.	.	.	.
.	.	.	.	4e\	.	.	.
.	.	.	.	1c	-us	2a/	.
.	.	.	.	.	.	2f/	.
=110	=110	=110	=110	=110	=110	=110	=110
1F	-li-	1.A]	.	0.r	.	1.f	.
0G	.	.	.	.	.	.	.
.	.	1.B	-li-	.	.	2e/	.
.	.	.	.	.	.	2e/	-li-
.	.	.	.	.	.	2d/	.
=111	=111	=111	=111	=111	=111	=111	=111
0F	-us	1.c	-us	0A	pa-	0f	-us
.	.	1.A	pa-	.	.	.	.
1F	pa-	.	.	[1c	.	1f	pa-
=112	=112	=112	=112	=112	=112	=112	=112
0C	.	1.G	.	2c\]	.	2e/	.
.	.	.	.	2d\	.	1g	.
.	.	.	.	1e	.	.	.
.	.	[1.c	.	.	.	1a	.
2F\	.	.	.	2a\	.	.	.
2G\	.	.	.	2g\	.	2b\	.
=113	=113	=113	=113	=113	=113	=113	=113
0A	.	1.c]	.	1e	.	1cc	.
.	.	.	.	1c	.	1a	.
.	.	1.e	.	.	.	.	.
1c	.	.	.	[1g	-tris,	2g/	.
.	.	.	.	.	.	2cc\	.
=114	=114	=114	=114	=114	=114	=114	=114
0G	-tris,	0.d	.	1g]	.	2b\	.
.	.	.	.	.	.	2dd\	.
.	.	.	.	1r	.	2g/	.
.	.	.	.	.	.	2a/	.
1G	pa-	.	.	1g	pa-	1b	.
=115	=115	=115	=115	=115	=115	=115	=115
0C	.	[0.cl	-tris.	0e	.	1.cc	.
.	.	.	.	.	.	2b\	.
1F	.	.	.	1f	.	1a	.
=116	=116	=116	=116	=116	=116	=116	=116
1C	.	0.c_	.	1e	.	1g	.
0F	.	.	.	2f\	.	1a	.
.	.	.	.	2e\	.	.	.
.	.	.	.	1c	.	1f	.
=117	=117	=117	=117	=117	=117	=117	=117
1F	.	0.c_	.	1A	.	2c/	.
.	.	.	.	.	.	2f/	.
0C	.	.	.	0G	.	2g/	.
.	.	.	.	.	.	1e	.
.	.	.	.	.	.	2d/	.
=118	=118	=118	=118	=118	=118	=118	=118
1r	.	0.c]	.	1F	.	0.fl	-tris.
0Fl	-tris.	.	.	2A/	.	.	.
.	.	.	.	2B\	.	.	.
.	.	.	.	1cl	-tris.	.	.
!!LO:LB:i:g=z
=119||	=119||	=119||	=119||	=119||	=119||	=119||	=119||
*>B	*>B	*>B	*>B	*>B	*>B	*>B	*>B
*clefF4	*	*clefGv2	*	*clefGv2	*	*clefG2	*
*k[]	*	*k[]	*	*k[]	*	*k[]	*
*M2/1	*	*M2/1	*	*M2/1	*	*M2/1	*
*met(C)	*	*met(C)	*	*met(C)	*	*met(C)	*
*MM420	*MM420	*MM420	*MM420	*MM420	*MM420	*MM420	*MM420
!!section: Qui tollis
!!!OMD: Qui tollis
0r	.	0r	.	[0f	Qui	0cc	Qui
=120.	=120.	=120.	=120.	=120.	=120.	=120.	=120.
0r	.	0r	.	0f]	.	0cc	tol-
=121.	=121.	=121.	=121.	=121.	=121.	=121.	=121.
0r	.	0r	.	0f	tol-	1a	-lis
.	.	.	.	.	.	[1cc	pec-
=122	=122	=122	=122	=122	=122	=122	=122
0r	.	0r	.	1c	-lis	1cc]	.
.	.	.	.	[1d	pec-	1b	.
=123.	=123.	=123.	=123.	=123.	=123.	=123.	=123.
0r	.	0r	.	1d]	.	0a	-ca-
.	.	.	.	1f	-ca-	.	.
=124.	=124.	=124.	=124.	=124.	=124.	=124.	=124.
0r	.	0r	.	0e	-ta	0g	-ta
=125	=125	=125	=125	=125	=125	=125	=125
0r	.	0r	.	1r	.	1.f	mun-
.	.	.	.	1f	mun-	.	.
.	.	.	.	.	.	2d/	.
=126.	=126.	=126.	=126.	=126.	=126.	=126.	=126.
0r	.	0r	.	1g	.	1e	.
.	.	.	.	[1a	.	1f	.
=127.	=127.	=127.	=127.	=127.	=127.	=127.	=127.
0r	.	0r	.	1a]	.	0d	.
.	.	.	.	1f	.	.	.
=128	=128	=128	=128	=128	=128	=128	=128
0r	.	0r	.	1e	.	[0c	-di,
.	.	.	.	[1g	.	.	.
=129.	=129.	=129.	=129.	=129.	=129.	=129.	=129.
0r	.	0r	.	2g\]	.	0c]	.
.	.	.	.	2f\	.	.	.
.	.	.	.	2e\	.	.	.
.	.	.	.	2c\	.	.	.
=130.	=130.	=130.	=130.	=130.	=130.	=130.	=130.
0r	.	0r	.	0d	.	1r	.
.	.	.	.	.	.	1B	mi-
=131	=131	=131	=131	=131	=131	=131	=131
0r	.	0r	.	0c	-di,	1c	-se-
.	.	.	.	.	.	1e	.
=132.	=132.	=132.	=132.	=132.	=132.	=132.	=132.
0r	.	0r	.	1r	.	1.d	-re-
.	.	.	.	1B	mi-	.	.
.	.	.	.	.	.	2c/	.
=133.	=133.	=133.	=133.	=133.	=133.	=133.	=133.
0r	.	0r	.	1c	-se-	2c/	-re,
.	.	.	.	.	.	2r	.
.	.	.	.	1e	.	1cc	mi-
=134	=134	=134	=134	=134	=134	=134	=134
0r	.	0r	.	0d	-re-	2b\	.
.	.	.	.	.	.	1b	-se-
.	.	.	.	.	.	2a/	.
=135.	=135.	=135.	=135.	=135.	=135.	=135.	=135.
0r	.	0r	.	1.c	-re	1a	-re-
.	.	.	.	.	.	2g/	-re
.	.	.	.	4B\	.	2f/	.
.	.	.	.	4A/	.	.	.
=136.	=136.	=136.	=136.	=136.	=136.	=136.	=136.
0r	.	0r	.	0G	no-	1.e	no-
.	.	.	.	.	.	2d/	.
=137	=137	=137	=137	=137	=137	=137	=137
[0F	Qui	[0c	Qui	0F	-bis.	0f	-bis.
=138.	=138.	=138.	=138.	=138.	=138.	=138.	=138.
0F]	.	0c]	.	0A	Qui	0r	.
=139.	=139.	=139.	=139.	=139.	=139.	=139.	=139.
0C	tol-	0c	tol-	0G	.	0e	Qui
=140	=140	=140	=140	=140	=140	=140	=140
0G	-lis	[0B	-lis	1r	.	1d	tol-
.	.	.	.	[1d	tol-	[1g	.
=141.	=141.	=141.	=141.	=141.	=141.	=141.	=141.
1r	.	0B]	.	2d\]	.	1g]	.
.	.	.	.	2e\	.	.	.
1G	pec-	.	.	2d\	.	1g	-lis
.	.	.	.	2c\	.	.	.
=142.	=142.	=142.	=142.	=142.	=142.	=142.	=142.
0c	-ca-	0A	pec-	0e	-lis	2a/	pec-
.	.	.	.	.	.	2b\	.
.	.	.	.	.	.	[1cc	-ca-
=143	=143	=143	=143	=143	=143	=143	=143
1A	.	1c	-ca-	0r	.	1cc]	.
1B	.	1d	.	.	.	1b	.
=144.	=144.	=144.	=144.	=144.	=144.	=144.	=144.
0c	.	0e	.	0r	.	1g	-ta
.	.	.	.	.	.	[1cc	mun-
=145.	=145.	=145.	=145.	=145.	=145.	=145.	=145.
0F	.	0f	.	0r	.	1cc]	.
.	.	.	.	.	.	1dd	.
=146	=146	=146	=146	=146	=146	=146	=146
0c	-ta	0e	-ta	[0g	pec-	1ee	.
.	.	.	.	.	.	1cc	.
=147.	=147.	=147.	=147.	=147.	=147.	=147.	=147.
0G	.	[0d	.	0g]	.	1dd	.
.	.	.	.	.	.	2b\	.
.	.	.	.	.	.	[2dd\	.
=148.	=148.	=148.	=148.	=148.	=148.	=148.	=148.
1r	.	0d]	.	1f	-ca-	2dd\]	.
.	.	.	.	.	.	2cc\	.
1G	mun-	.	.	1g	.	2b\	.
.	.	.	.	.	.	2a/	.
=149	=149	=149	=149	=149	=149	=149	=149
0C	.	0c	mun-	0e	-ta	0cc	.
=150.	=150.	=150.	=150.	=150.	=150.	=150.	=150.
1E	.	1G	.	1e	mun-	1b	.
1F	.	[1A	.	1c	.	2a/	.
.	.	.	.	.	.	[2a/	.
=151.	=151.	=151.	=151.	=151.	=151.	=151.	=151.
0D	.	1A]	.	0d	.	2a/]	.
.	.	.	.	.	.	2g/	.
.	.	1B	.	.	.	1f	.
=152	=152	=152	=152	=152	=152	=152	=152
[0C	-di,	[0c	-di,	[0G	-di,	0e	-di,
=153.	=153.	=153.	=153.	=153.	=153.	=153.	=153.
0C]	.	0c]	.	0G]	.	0r	.
=154.	=154.	=154.	=154.	=154.	=154.	=154.	=154.
0r	.	0r	.	0c	su-	0g	su-
=155	=155	=155	=155	=155	=155	=155	=155
0r	.	[0g	su-	1.c	-sci-	0cc	-sci-
.	.	.	.	2d\	.	.	.
=156.	=156.	=156.	=156.	=156.	=156.	=156.	=156.
0r	.	0g]	.	0e	.	0cc	-pe
=157.	=157.	=157.	=157.	=157.	=157.	=157.	=157.
0G	de-	0g	-sci-	0d	-pe	1.b	de-
.	.	.	.	.	.	2a/	-pre-
=158	=158	=158	=158	=158	=158	=158	=158
1A	-pre-	[0c	-pe	0r	.	1.cc	-ca-
[1F	-ca-	.	.	.	.	.	.
.	.	.	.	.	.	2a/	.
=159.	=159.	=159.	=159.	=159.	=159.	=159.	=159.
1F]	.	0c]	.	0r	.	1.a	-ti-
1A	-ti-	.	.	.	.	.	.
.	.	.	.	.	.	4g/	.
.	.	.	.	.	.	4f/	.
=160.	=160.	=160.	=160.	=160.	=160.	=160.	=160.
0G	-o-	0B	no-	0r	.	1.e	-o-
.	.	.	.	.	.	2d/	.
=161	=161	=161	=161	=161	=161	=161	=161
0F	-nem	1c	.	0r	.	2f/	-nem
.	.	.	.	.	.	2r	.
.	.	1d	.	.	.	2a/	no-
.	.	.	.	.	.	2b\	.
=162.	=162.	=162.	=162.	=162.	=162.	=162.	=162.
1C	no-	1e	.	0r	.	1cc	.
[1D	.	1f	.	.	.	2a/	.
.	.	.	.	.	.	[2dd\	.
=163.	=163.	=163.	=163.	=163.	=163.	=163.	=163.
1D]	.	0d	.	0r	.	2dd\]	.
.	.	.	.	.	.	2cc\	.
1D	.	.	.	.	.	2b\	.
.	.	.	.	.	.	2a/	.
=164	=164	=164	=164	=164	=164	=164	=164
[0F	-stram.	[0c	-stram.	1.f	de-	0a	-stram.
.	.	.	.	2g\	-pre-	.	.
=165.	=165.	=165.	=165.	=165.	=165.	=165.	=165.
0F]	.	0c]	.	1a	-ca-	1.f	.
.	.	.	.	[1a	-ti-	.	.
.	.	.	.	.	.	4e/	.
.	.	.	.	.	.	4d/	.
=166.	=166.	=166.	=166.	=166.	=166.	=166.	=166.
[0A	.	0r	.	2a\]	.	0c	.
.	.	.	.	2g\	.	.	.
.	.	.	.	2f\	.	.	.
.	.	.	.	2e\	.	.	.
=167	=167	=167	=167	=167	=167	=167	=167
0A]	.	0a	de-	0e	-o-	0r	.
=168.	=168.	=168.	=168.	=168.	=168.	=168.	=168.
[0F	.	1a	-pre-	1f	-nem	0r	.
.	.	[1a	-ca-	2d\	no-	.	.
.	.	.	.	2c\	.	.	.
=169.	=169.	=169.	=169.	=169.	=169.	=169.	=169.
0F]	.	1a]	.	1c	-stram.	0r	.
.	.	1a	-ti-	1f	.	.	.
=170	=170	=170	=170	=170	=170	=170	=170
0c	Qui	[0g	-o-	0e	Qui	0cc	Qui
=171.	=171.	=171.	=171.	=171.	=171.	=171.	=171.
0G	se-	0g]	.	0d	se-	0b	se-
=172.	=172.	=172.	=172.	=172.	=172.	=172.	=172.
0A	.	1r	.	1.c	.	1a	.
.	.	1c	-nem	.	.	2f/	.
.	.	.	.	2A/	.	2e/	.
=173	=173	=173	=173	=173	=173	=173	=173
0G	.	1d	no-	1.B	.	2g/	.
.	.	.	.	.	.	2a/	.
.	.	1e	.	.	.	1b	.
.	.	.	.	2A/	.	.	.
=174.	=174.	=174.	=174.	=174.	=174.	=174.	=174.
0F	-des	0f	.	1c	-des	1a	-des
.	.	.	.	2A/	ad	1cc	ad
.	.	.	.	2F/	.	.	.
=175.	=175.	=175.	=175.	=175.	=175.	=175.	=175.
0r	.	0d	.	1G	dex-	1b	dex-
.	.	.	.	2F/	-te-	2a/	-te-
.	.	.	.	2G/	.	4g/	.
.	.	.	.	.	.	4f/	.
=176	=176	=176	=176	=176	=176	=176	=176
0r	.	0c	-stram	1A	-ram	2e/	-ram
.	.	.	.	.	.	2r	.
.	.	.	.	[1F	pa-	2a/	pa-
.	.	.	.	.	.	2b\	.
=177.	=177.	=177.	=177.	=177.	=177.	=177.	=177.
0r	.	0r	.	1F]	.	1.cc	.
.	.	.	.	1A	.	.	.
.	.	.	.	.	.	2a/	.
=178.	=178.	=178.	=178.	=178.	=178.	=178.	=178.
0r	.	0d	pa-	0G	-tris,	2b\	.
.	.	.	.	.	.	2cc\	.
.	.	.	.	.	.	1dd	.
=179	=179	=179	=179	=179	=179	=179	=179
0r	.	0c	-tris,	1g	mi-	2ee\	.
.	.	.	.	.	.	2.ee\	.
.	.	.	.	1e	-se-	.	.
.	.	.	.	.	.	4dd\	.
.	.	.	.	.	.	2cc\	.
=180.	=180.	=180.	=180.	=180.	=180.	=180.	=180.
0r	.	0G	mi-	0d	-re-	1.b	.
.	.	.	.	.	.	2a/	.
=181.	=181.	=181.	=181.	=181.	=181.	=181.	=181.
0r	.	1g	-se-	0c	-re	0cc	-tris,
.	.	1g	-re-	.	.	.	.
=182	=182	=182	=182	=182	=182	=182	=182
[0C	mi-	1g	-re	1.e	no-	0r	.
.	.	1g	no-	.	.	.	.
.	.	.	.	2f\	.	.	.
=183.	=183.	=183.	=183.	=183.	=183.	=183.	=183.
0C]	.	0c	-bis,	0g	.	0cc	mi-
=184.	=184.	=184.	=184.	=184.	=184.	=184.	=184.
0G	-se-	1r	.	0g	-bis.	1.b	-se-
.	.	1d	no-	.	.	.	.
.	.	.	.	.	.	2a/	.
=185	=185	=185	=185	=185	=185	=185	=185
1A	-re-	0c	.	0r	.	2cc\	-re-
.	.	.	.	.	.	2b\	.
1F	-re	.	.	.	.	1a	-re
=186.	=186.	=186.	=186.	=186.	=186.	=186.	=186.
0G	no-	0B-	.	0r	.	1g	no-
.	.	.	.	.	.	2d/	.
.	.	.	.	.	.	2g/	.
=187.	=187.	=187.	=187.	=187.	=187.	=187.	=187.
0c	-bis.	0A	.	0r	.	2a/	.
.	.	.	.	.	.	1f#i	.
.	.	.	.	.	.	2e/	.
=188	=188	=188	=188	=188	=188	=188	=188
1r	.	0G	-bis.	1d	Quo-	[0g	-bis.
[1d	Quo-	.	.	1B	-ni-	.	.
=189.	=189.	=189.	=189.	=189.	=189.	=189.	=189.
1d]	.	0r	.	0G	-am	0g_	.
1B	-ni-	.	.	.	.	.	.
=190.	=190.	=190.	=190.	=190.	=190.	=190.	=190.
0c	-am	0r	.	1e	tu	0g]	.
.	.	.	.	2c\	so-	.	.
.	.	.	.	2e\	.	.	.
=191	=191	=191	=191	=191	=191	=191	=191
1G	tu	0r	.	2d\	.	0r	.
.	.	.	.	1g	.	.	.
1A	.	.	.	.	.	.	.
.	.	.	.	2f\	.	.	.
=192.	=192.	=192.	=192.	=192.	=192.	=192.	=192.
1G	so-	0r	.	2g\	.	0r	.
.	.	.	.	2e\	.	.	.
2F\	.	.	.	1d	.	.	.
[2G\	.	.	.	.	.	.	.
=193.	=193.	=193.	=193.	=193.	=193.	=193.	=193.
2G\]	.	0r	.	2B\	.	0r	.
1C	.	.	.	2c\	.	.	.
.	.	.	.	2A/	.	.	.
2BB/	-lus	.	.	[2G/	-lus	.	.
=194	=194	=194	=194	=194	=194	=194	=194
2C/	san-	0r	.	2G/]	.	0r	.
2E\	.	.	.	2c\	san-	.	.
1D	.	.	.	2d\	.	.	.
.	.	.	.	2f\	.	.	.
=195.	=195.	=195.	=195.	=195.	=195.	=195.	=195.
1C	.	0r	.	2e\	.	0r	.
.	.	.	.	1g	.	.	.
2E\	.	.	.	.	.	.	.
[2F\	.	.	.	2c\	.	.	.
=196.	=196.	=196.	=196.	=196.	=196.	=196.	=196.
2F\]	.	0r	.	2d\	.	0r	.
2G\	.	.	.	2e\	.	.	.
2A\	.	.	.	2.f\	.	.	.
[2F\	.	.	.	.	.	.	.
.	.	.	.	4e\	.	.	.
=197	=197	=197	=197	=197	=197	=197	=197
2F\]	.	0r	.	4d\	.	0r	.
.	.	.	.	4c\	.	.	.
2E\	.	.	.	1c	.	.	.
1D	.	.	.	.	.	.	.
.	.	.	.	2B\	.	.	.
=198.	=198.	=198.	=198.	=198.	=198.	=198.	=198.
1C	-ctus,	0r	.	1c	-ctus,	0r	.
[1F	san-	.	.	2A/	san-	.	.
.	.	.	.	[2A/	.	.	.
=199.	=199.	=199.	=199.	=199.	=199.	=199.	=199.
1F]	.	0r	.	4A/]	.	0r	.
.	.	.	.	4G/	.	.	.
.	.	.	.	2F/	.	.	.
1G	.	.	.	1E	.	.	.
=200	=200	=200	=200	=200	=200	=200	=200
1A	.	[0c	Quo-	1F	-ctus.	0r	.
[1F	-ctus.	.	.	1r	.	.	.
=201.	=201.	=201.	=201.	=201.	=201.	=201.	=201.
1F]	.	0c]	.	1A	Tu	0r	.
1C	Tu	.	.	2G/	.	.	.
.	.	.	.	2E/	.	.	.
=202.	=202.	=202.	=202.	=202.	=202.	=202.	=202.
0D	so-	0B	-ni-	1.F	so-	0r	.
.	.	.	.	2E/	.	.	.
=203	=203	=203	=203	=203	=203	=203	=203
0C	.	[0c	-am	0G	.	0e	Quo-
=204.	=204.	=204.	=204.	=204.	=204.	=204.	=204.
[0F	.	0c]	.	0A	.	1c	-ni-
.	.	.	.	.	.	1cc	-am
=205.	=205.	=205.	=205.	=205.	=205.	=205.	=205.
0F]	.	0d	tu	1.A	-lus	2b\	tu
.	.	.	.	.	.	1a	.
.	.	.	.	2B\	.	2g/	.
=206	=206	=206	=206	=206	=206	=206	=206
0C	-lus	0e	so-	0c	.	1g	so-
.	.	.	.	.	.	[1cc	.
=207.	=207.	=207.	=207.	=207.	=207.	=207.	=207.
0r	.	0c	-lus	2e\	do-	2cc\]	.
.	.	.	.	2f\	.	2dd\	.
.	.	.	.	1g	.	1ee	.
=208.	=208.	=208.	=208.	=208.	=208.	=208.	=208.
[0c	do-	0r	.	2a\	.	0cc	-lus
.	.	.	.	2g\	.	.	.
.	.	.	.	[1e	.	.	.
=209	=209	=209	=209	=209	=209	=209	=209
1c]	.	1g	san-	1e]	.	1cc	san-
1G	.	1g	.	1d	.	1b	.
=210.	=210.	=210.	=210.	=210.	=210.	=210.	=210.
0A	-mi-	1e	.	1.c	-mi-	2a/	.
.	.	.	.	.	.	1cc	.
.	.	1f	.	.	.	.	.
.	.	.	.	2B\	.	2dd\	.
=211.	=211.	=211.	=211.	=211.	=211.	=211.	=211.
0G	-nus.	0g	-ctus.	0d	-nus.	0b	-ctus.
=212	=212	=212	=212	=212	=212	=212	=212
0c	.	0r	.	0e	Tu	1g	Tu
.	.	.	.	.	.	1g	so-
=213.	=213.	=213.	=213.	=213.	=213.	=213.	=213.
1r	.	0c	Tu	1e	so-	1.cc	.
1A	Tu	.	.	1f	.	.	.
.	.	.	.	.	.	2b\	.
=214.	=214.	=214.	=214.	=214.	=214.	=214.	=214.
0G	.	1d	so-	0g	.	0b	-lus
.	.	1e	.	.	.	.	.
=215	=215	=215	=215	=215	=215	=215	=215
1F	so-	1f	-lus	0c	-lus,	1a	do-
[1C	.	1e	.	.	.	[1g	.
=216.	=216.	=216.	=216.	=216.	=216.	=216.	=216.
1C]	.	1c	.	0r	.	2g/]	.
.	.	.	.	.	.	1cc	.
1C	.	1G	.	.	.	.	.
.	.	.	.	.	.	2b\	.
=217.	=217.	=217.	=217.	=217.	=217.	=217.	=217.
1F	.	1A	.	0r	.	1a	.
1G	.	1B	.	.	.	2g/	-mi-
.	.	.	.	.	.	2f/	.
=218	=218	=218	=218	=218	=218	=218	=218
0A	-lus	1c	.	0r	.	1e	-nus.
.	.	[1e	al-	.	.	1a	Tu
=219.	=219.	=219.	=219.	=219.	=219.	=219.	=219.
1c	al-	1e]	.	2c\	tu	2g/	so-
.	.	.	.	1e	.	1cc	.
1A	.	1c	.	.	.	.	.
.	.	.	.	2c\	.	2a/	.
=220.	=220.	=220.	=220.	=220.	=220.	=220.	=220.
1G	-tis-	1g	-tis-	1d	so-	2.b\	.
.	.	.	.	.	.	4g/	.
[1C	.	1e	-si-	1c	-lus	1g	-lus
=221	=221	=221	=221	=221	=221	=221	=221
0C]	.	1c	-mus,	1g	al-	1r	.
.	.	1r	.	1e	.	2g/	al-
.	.	.	.	.	.	2a/	.
=222.	=222.	=222.	=222.	=222.	=222.	=222.	=222.
0C	-si-	1g	al-	0c	.	2g/	.
.	.	.	.	.	.	1cc	.
.	.	1e	.	.	.	.	.
.	.	.	.	.	.	2dd\	.
=223.	=223.	=223.	=223.	=223.	=223.	=223.	=223.
1C	-mus,	1g	-tis-	1c	-tis-	1ee	-tis-
1r	.	1f	.	1a	.	2cc\	.
.	.	.	.	.	.	[2dd\	.
=224	=224	=224	=224	=224	=224	=224	=224
0r	.	0d	-si-	2f\	.	2dd\]	.
.	.	.	.	1f	-si-	2cc\	.
.	.	.	.	.	.	2a/	-si-
.	.	.	.	2e\	.	2b\	.
=225.	=225.	=225.	=225.	=225.	=225.	=225.	=225.
0C	Ie-	0c	-mus	1g	-mus	0cc	-mus,
.	.	.	.	1e	.	.	.
=226.	=226.	=226.	=226.	=226.	=226.	=226.	=226.
0BB	.	1r	.	1d	Ie-	0r	.
.	.	1d	Ie-	2f\	.	.	.
.	.	.	.	2g\	.	.	.
=227	=227	=227	=227	=227	=227	=227	=227
0C	-su	1c	-su	0e	-su	0cc	Ie-
.	.	[1A	Chri-	.	.	.	.
=228.	=228.	=228.	=228.	=228.	=228.	=228.	=228.
0D	.	1A]	.	0d	.	2a/	.
.	.	.	.	.	.	2g/	.
.	.	1B	.	.	.	1f	.
=229.	=229.	=229.	=229.	=229.	=229.	=229.	=229.
0C	.	1c	.	1G	Chri-	1.e	-su
.	.	1A	.	[1c	.	.	.
.	.	.	.	.	.	2f/	.
=230	=230	=230	=230	=230	=230	=230	=230
[0C	Chri-	1G	.	2c\]	.	1.g	.
.	.	.	.	2d\	.	.	.
.	.	[1c	.	[1e	.	.	.
.	.	.	.	.	.	2a/	.
=231.	=231.	=231.	=231.	=231.	=231.	=231.	=231.
0C]	.	1c]	.	2e\]	.	2g/	.
.	.	.	.	2f\	.	1cc	.
.	.	1e	.	[1g	.	.	.
.	.	.	.	.	.	2cc\	Chri-
=232.	=232.	=232.	=232.	=232.	=232.	=232.	=232.
0G	-ste,	0d	.	1g]	.	2dd\	.
.	.	.	.	.	.	1b	.
.	.	.	.	1g	-ste,	.	.
.	.	.	.	.	.	2a/	.
=233	=233	=233	=233	=233	=233	=233	=233
1A	Ie-	[0cl	-ste.	1e	Ie-	1.cc	.
[1F	.	.	.	[1f	.	.	.
.	.	.	.	.	.	2b\	.
=234.	=234.	=234.	=234.	=234.	=234.	=234.	=234.
1F]	.	0c_	.	1f]	.	1a	.
1C	-su	.	.	1e	-su	1g	.
=235.	=235.	=235.	=235.	=235.	=235.	=235.	=235.
*	*	*	*	*^	*	*	*
0F	Chri-	0c_	.	0A\	0f/	Chri-	2a/	.
.	.	.	.	.	.	.	1a	.
.	.	.	.	.	.	.	2f/	.
*	*	*	*	*v	*v	*	*	*
=236	=236	=236	=236	=236	=236	=236	=236
*	*	*	*	*^	*	*	*
0Cl	-ste.	0c]	.	0Gl\	0gl/	-ste.	0el	-ste.
*	*	*	*	*v	*v	*	*	*
!!LO:LB:i:g=z
=237||	=237||	=237||	=237||	=237||	=237||	=237||	=237||
*>C	*>C	*>C	*>C	*>C	*>C	*>C	*>C
*clefF4	*	*clefGv2	*	*clefGv2	*	*clefG2	*
*k[]	*	*k[]	*	*k[]	*	*k[]	*
*M3/1	*	*M3/1	*	*M3/1	*	*M3/1	*
*met(O)	*	*met(O)	*	*met(O)	*	*met(O)	*
*MM384	*MM384	*MM384	*MM384	*MM384	*MM384	*MM384	*MM384
!!section: Cum sancto spiritu
!!!OMD: Cum sancto spiritu
0c	Cum	0.r	.	1.c	Cum	0.r	.
.	.	.	.	2d\	.	.	.
1c	san-	.	.	1e	.	.	.
=238	=238	=238	=238	=238	=238	=238	=238
1A	.	0.r	.	1f	san-	0.r	.
2G\	.	.	.	1.g	.	.	.
1B-	.	.	.	.	.	.	.
2A\	.	.	.	2f\	.	.	.
=239	=239	=239	=239	=239	=239	=239	=239
1F	.	0.r	.	2d\	.	0.r	.
.	.	.	.	2c\	.	.	.
0G	.	.	.	1.e	.	.	.
.	.	.	.	2d\	.	.	.
=240	=240	=240	=240	=240	=240	=240	=240
0.F	-cto	0.r	.	1f	-cto	0.r	.
.	.	.	.	2e\	.	.	.
.	.	.	.	1d	.	.	.
.	.	.	.	2c\	.	.	.
=241	=241	=241	=241	=241	=241	=241	=241
1E	spi-	0.r	.	1c	spi-	0.r	.
1F	.	.	.	1A	.	.	.
[1C	.	.	.	1G	.	.	.
=242	=242	=242	=242	=242	=242	=242	=242
1C]	.	0.r	.	1.c	.	0.r	.
0D	-ri-	.	.	.	.	.	.
.	.	.	.	2B\	.	.	.
.	.	.	.	2B\	-ri-	.	.
.	.	.	.	2A/	.	.	.
=243	=243	=243	=243	=243	=243	=243	=243
0.C	-tu	0c	Cum	1.c	-tu,	1.cc	Cum
.	.	.	.	2d\	.	2b\	.
.	.	1c	san-	[1e	.	2a/	.
.	.	.	.	.	.	2g/	.
=244	=244	=244	=244	=244	=244	=244	=244
0.r	.	0B	.	2e\]	.	0g	san-
.	.	.	.	1d	.	.	.
.	.	.	.	2c\	.	.	.
.	.	1A	.	1e	.	[1a	.
=245	=245	=245	=245	=245	=245	=245	=245
0.r	.	2c\	.	0.r	.	2a/]	.
.	.	2d\	.	.	.	2f/	.
.	.	1e	.	.	.	1g	.
.	.	1f	.	.	.	1a	.
=246	=246	=246	=246	=246	=246	=246	=246
0.r	.	1e	-cto	0.r	.	1g	-cto
.	.	0d	.	.	.	1.f	.
.	.	.	.	.	.	2d/	.
=247	=247	=247	=247	=247	=247	=247	=247
0.r	.	1c	spi-	0.r	.	1.e	spi-
.	.	2G/	.	.	.	.	.
.	.	1A	.	.	.	2c/	.
.	.	.	.	.	.	1d	-ri-
.	.	2B\	-ri-	.	.	.	.
=248	=248	=248	=248	=248	=248	=248	=248
0.r	.	0c	-tu	0.r	.	1e	-tu
.	.	.	.	.	.	0c	.
.	.	1r	.	.	.	.	.
=249	=249	=249	=249	=249	=249	=249	=249
[0.C	in	0g	in	0.r	.	1r	.
.	.	.	.	.	.	1.c	in
.	.	1g	glo-	.	.	.	.
.	.	.	.	.	.	2d/	.
=250	=250	=250	=250	=250	=250	=250	=250
0C]	.	0c	-ri-	0.r	.	2e/	.
.	.	.	.	.	.	2f/	.
.	.	.	.	.	.	1.g	.
1G	.	1B	.	.	.	.	.
.	.	.	.	.	.	2f/	.
=251	=251	=251	=251	=251	=251	=251	=251
1F	glo-	2c\	.	0.r	.	1a	glo-
.	.	2d\	.	.	.	.	.
1C	.	2e\	.	.	.	2g/	.
.	.	2f\	.	.	.	2cc\	.
1G	-ri-	1d	.	.	.	2.b\	-ri-
.	.	.	.	.	.	4a/	.
=252	=252	=252	=252	=252	=252	=252	=252
0C	-a	0c	-a	0g	in	0.cc	-a
[1F	.	1r	.	1a	.	.	.
=253	=253	=253	=253	=253	=253	=253	=253
0.F]	.	1a	glo-	0f	glo-	0.r	.
.	.	2a\	-ri-	.	.	.	.
.	.	1a	-a	.	.	.	.
.	.	.	.	1f	-ri-	.	.
.	.	2a\	de-	.	.	.	.
=254	=254	=254	=254	=254	=254	=254	=254
0c	de-	0g	-i	0e	-a	0cc	de-
1A	-i	2r	.	1c	.	1cc	-i
.	.	2c\	pa-	.	.	.	.
=255	=255	=255	=255	=255	=255	=255	=255
1G	pa-	2d\	.	1r	.	1b	pa-
.	.	2e\	.	.	.	.	.
0F	.	1f	.	0A	de-	2a/	.
.	.	.	.	.	.	2.a/	.
.	.	1d	.	.	.	.	.
.	.	.	.	.	.	4g/	.
.	.	.	.	.	.	2f/	.
=256	=256	=256	=256	=256	=256	=256	=256
1C	.	1c	-tris,	1G	-i	1e	.
0F	.	1r	.	0A	pa-	1.f	.
.	.	1d	in	.	.	.	.
.	.	.	.	.	.	2e/	.
=257	=257	=257	=257	=257	=257	=257	=257
[0.C	-tris,	1c	.	1G	-tris,	0.e	-tris,
.	.	1G	.	1.c	in	.	.
.	.	2g\	glo-	.	.	.	.
.	.	2g\	-ri-	2d\	.	.	.
=258	=258	=258	=258	=258	=258	=258	=258
0C]	.	2g\	-a	0e	glo-	1r	.
.	.	2g\	de-	.	.	.	.
.	.	1c	-i	.	.	1cc	in
1F	in	2r	.	[1f	.	2a/	glo-
.	.	2d\	pa-	.	.	2b\	.
=259	=259	=259	=259	=259	=259	=259	=259
1F	glo-	1c	.	1f]	.	1a	.
1G	-ri-	1B-	.	0d	-ri-	2g/	.
.	.	.	.	.	.	1g	.
1D	-a,	1A	.	.	.	.	.
.	.	.	.	.	.	2f#i/	-ri-
=260	=260	=260	=260	=260	=260	=260	=260
1r	.	1G	-tris	0d	-a,	0.g	-a,
0G	in	1r	.	.	.	.	.
.	.	1r	.	1g	in	.	.
=261	=261	=261	=261	=261	=261	=261	=261
1A	glo-	0.r	.	2e\	glo-	0.r	.
.	.	.	.	2c\	.	.	.
0B	-ri-	.	.	1.d	.	.	.
.	.	.	.	2c\	-ri-	.	.
=262	=262	=262	=262	=262	=262	=262	=262
0c	-a,	0.r	.	2c\	-a,	1r	.
.	.	.	.	2r	.	.	.
.	.	.	.	1g	in	1r	.
1F	in	.	.	2a\	.	1cc	in
.	.	.	.	[2a\	glo-	.	.
=263	=263	=263	=263	=263	=263	=263	=263
1A	glo-	0.r	.	4a\]	.	1cc	glo-
.	.	.	.	4e\	.	.	.
.	.	.	.	2f\	.	.	.
0G	-ri-	.	.	2g\	.	0b	-ri-
.	.	.	.	2d\	.	.	.
.	.	.	.	2.e\	-ri-	.	.
.	.	.	.	4d\	.	.	.
=264	=264	=264	=264	=264	=264	=264	=264
0F	-a	0c	in	0f	-a	0a	-a
1G	de-	1B	.	1d	de-	1g	de-
=265	=265	=265	=265	=265	=265	=265	=265
1A	.	0c	glo-	1c	.	1e	.
0F	-i	.	.	0A	-i	0f	-i
.	.	1d	-ri-	.	.	.	.
=266	=266	=266	=266	=266	=266	=266	=266
1E	pa-	1e	-a	1r	.	1g	pa-
1.F	.	1c	.	1.f	pa-	1.a	.
.	.	1r	.	.	.	.	.
2E\	.	.	.	2g\	.	2b\	.
=267	=267	=267	=267	=267	=267	=267	=267
[0.C	-tris,	2g\	de-	1e	.	1cc	.
.	.	2g\	-i	.	.	.	.
.	.	2e\	pa-	1g	.	1.cc	.
.	.	2f\	.	.	.	.	.
.	.	1g	-tris,	[1c	.	.	.
.	.	.	.	.	.	2b\	.
=268	=268	=268	=268	=268	=268	=268	=268
0C]	.	1r	.	2c\]	.	1g	.
.	.	.	.	1G	.	.	.
.	.	1c	A-	.	.	1cc	.
.	.	.	.	2A/	.	.	.
1G	pa-	2d\	.	1B	.	1b	.
.	.	2e\	.	.	.	.	.
=269	=269	=269	=269	=269	=269	=269	=269
2F\	.	2f\	.	2c\	.	2a/	.
2G\	.	2e\	.	2B\	.	1g	.
1E	.	2c\	.	1G	.	.	.
.	.	2G/	.	.	.	2e/	.
1D	.	2A/	.	1F	.	1f	.
.	.	2B\	.	.	.	.	.
=270	=270	=270	=270	=270	=270	=270	=270
0C	.	2c\	.	0G	-tris.	2e/	-tris.
.	.	1e	.	.	.	2r	.
.	.	.	.	.	.	2c/	A-
.	.	2c\	.	.	.	2g/	.
1C	.	2g\	.	2r	.	2e/	.
.	.	2e\	.	2g\	A-	2c/	.
=271	=271	=271	=271	=271	=271	=271	=271
0.C	-tris.	2c\	.	2e\	.	2r	.
.	.	2r	.	2c\	.	2g/	.
.	.	2g\	.	2r	.	2e/	.
.	.	2e\	.	2g\	.	2g/	.
.	.	2g\	.	2.e\	.	2r	.
.	.	2f\	.	.	.	2cc\	.
.	.	.	.	4d\	.	.	.
=272	=272	=272	=272	=272	=272	=272	=272
1r	.	1d	.	1f	.	2b\	.
.	.	.	.	.	.	2a/	.
1r	.	1c	-men,	2g\	.	1cc	.
.	.	.	.	2e\	.	.	.
[1F	A-	2r	.	2c\	.	1a	.
.	.	2d\	a-	[2f\	.	.	.
=273	=273	=273	=273	=273	=273	=273	=273
1F]	.	2c\	.	4f\]	.	1r	.
.	.	.	.	4e\	.	.	.
.	.	1A	.	2c\	.	.	.
1D	.	.	.	1d	.	1f	.
.	.	2B\	.	.	.	.	.
[1C	.	2c\	.	2G/	.	2.e/	.
.	.	2A/	.	[2c\	.	.	.
.	.	.	.	.	.	4f/	.
=274	=274	=274	=274	=274	=274	=274	=274
1C]	.	2G/	.	4c\]	.	1g	.
.	.	.	.	4B\	.	.	.
.	.	1c	.	4A/	.	.	.
.	.	.	.	4G/	.	.	.
1C	.	.	.	1G	.	1cc	.
.	.	2e\	.	.	.	.	.
1D	.	1d	.	1F	.	2a/	.
.	.	.	.	.	.	[2a/	.
=275	=275	=275	=275	=275	=275	=275	=275
1F	.	[0.cl	-men.	1A	.	2a/]	.
.	.	.	.	.	.	2f/	.
0C	.	.	.	0G	.	2g/	.
.	.	.	.	.	.	1e	.
.	.	.	.	.	.	2d/	.
=276	=276	=276	=276	=276	=276	=276	=276
0.Fl	-men.	0.c]	.	1.A	.	0.fl	-men.
.	.	.	.	2F/	.	.	.
.	.	.	.	1Fl	-men.	.	.
==	==	==	==	==	==	==	==
*-	*-	*-	*-	*-	*-	*-	*-
!!!RDF**kern: l=long note in original notation
!!!RDF**kern: i=editorial accidental
!!!ENC:	Jesse Rodin 8/28/2013
!!!END:	2013/11/21/
!!!EED:	Jesse Rodin
!!!EEV:	2013/11/21/
!!!ONB:	Translated from SCORE and edited on 2013/11/21/ by Craig Sapp
!!muse2ps: T^@{OPR}^u^@{ONM}{. }@{OTL}^C^@{COM}^i2I150v90,95,90,130Q1c170
